X:47
T:Svanpolska efter Pelle Fors
R:sl\"angpolska
H:\"Aven i Am, #18. Jfr #121.
H:o = flageolett
A:\"Osterg\"otland
Z:id:hn-sp-47
M:3/4
L:1/16
K:Gm =e
"o"g4 "o"a4 "o"d3e | fgfe ^c2c2 d3A | BcBA G^FGA BcBA |
G2g2 g^fa^f d4 | "o"g4 "o"a4 "o"d3e | fgfe ^c2c2 d3A |
BcBA G^FGA BcBA | {Bc}B2{cB}AG ^F2G2 [G4D4G,4] :|
D^FGA BcBA GABc | d2g2 g^fa^f g^fe^f | d2^f2 g2a2 a2b2 |
b2g2 gag^f g^fe^f | D^FGA BcBA GABc | d2g2 g^fa^f g^fe^f |
d2^f2 g2a2 a2b2 | b2g2 gag^f g^fe^f | dBdf ecec dBdB |
dBdf ecec dBdB | BcBA GABc dedA | B2{cB}AG ^F2G2 [G4D4G,4] |
P:varianter p{\aa} andra delen (takt 4 & 8)
D^FGA BcBA GABc | d2g2 g^fa^f g^fe^f | d2^f2 g2a2 a2b2 |
b2g2 ag^fg e2d2 | D^FGA BcBA GABc | d2g2 g^fa^f g^fe^f |
d2^f2 g2a2 a2b2 | b2g2 gag^f ^f2d2 | dBdf ecec dBdB |
dBdf ecec dBdB | BcBA GABc dedA | B2{cB}AG ^F2G2 [G4D4G,4] |
<end>
<start>
